!!!OTL: Lindenschmid. (♱ 1490.)
!!!ARE: Europa, Mitteleuropa, Deutschland
!!!SCT: A0375
!!!TXL: @@GMH
!!!YEM: Copyright 1995, estate of Helmut Schaffrath.
**kern	**text
!! Mixed meters:  4/2; 6/2
*M6/2	*
*met(c|)	*
*clefC4	*
*k[b-]	*
*g:dor	*
!LO:TX:a:t=dor. tr. = aeol. tr. = G moll.	!
{2G	Was
2G	wölln
2G	wir
=1	=1
1.d	ſingn
2c	und
2d	he-
2B-	-ben
=2	=2
1A	an?
2r}	.
{2G	das
2B-	beſt
2A	das
=3	=3
1.B-	wir
2d	ge-
2c	-ler-
2B-	-net
=4	=4
1A	han,
2r}	.
{2G	ein
2G	new-
2G	-es
=5	=5
*M4/2	*
*lig	*
2.c	lied
4B-	.
2A	.
*Xlig	*
2B-	ʒu
=6	=6
1G	ſin-
1F	-gen:
=7	=7
2r}	.
{2F	wir
2B-	ſingn
2A	von
=8	=8
*M6/2	*
1.B-	ei-
2d	-nem
2c	e-
2B-	-del-
=9	=9
*M4/2	*
1A	-man,
2r}	.
!LO:TX:a:t=+	!
{2A	der
=10	=10
2G	heißt
2A/	Schmid
2B-	von
2A	der
=11	=11
*lig	*
2.d	Lin-
4c	.
2B-	.
*Xlig	*
2c	.
=12	=12
1A	.
2G/ll}	-den.
==	==
!!!GTL: Einige historisch-politische Lieder
!!!AGN: Romanze, Ballade, Lied, Personenlied
!! J. Ott 1534 No. 15.
!!!ONB: ESAC (Essen Associative Code) Database: ALTDEU
!!!AMT: irregular
!!!AIN: vox
!!!EED: Helmut Schaffrath
!!!EEV: 1.0
!!!RDF**kern: l = terminal long
!!!AMD: Dorian
!!!URL-scan: https://rosdok.uni-rostock.de/mcrviewer/recordIdentifier/rosdok_ppn738218359/iview2/phys_0532.iview2?x=-948.0634874302073&y=-1391.3120922259986&scale=0.3669911794666851&rotation=0&layout=singlePageLayout&logicalDiv=log_0014
!!!ENC: Anna Maria Matuszewska
!!!EEV: 2024/14/03
*-	*-
